public/img/marlin-spring.svg

<?xml version="1.0" encoding="UTF-8"?><svg fill="none" height="1750" viewBox="0 0 480 175" width="4800" xmlns="http://www.w3.org/2000/svg"><g clip-rule="evenodd" fill="#fff" fill-rule="evenodd"><path d="m12.4115 2.81731 22.2279 51.43899 22.3081-51.43899 12.4131 64.76579h-6.9786l-7.8668-41.4439h-.1632l-19.7126 43.9607-19.6324-43.9607h-.1632l-7.8668 41.4439h-6.9757793z"/><path d="m148.702 43.8543-10.222-24.5415-10.468 24.5415-2.756 6.3391-7.382 17.3902h-7.463l28.23-64.19752 27.502 64.19752h-7.546l-7.219-17.3902z"/><path d="m218.549 34.6727h2.108c7.707 0 15.493-1.4635 15.493-10.9707 0-10.0755-7.38-11.0512-15.573-11.0512h-2.028zm0 32.9123h-6.813v-61.27329h8.841c11.6 0 22.388 3.08778 22.388 16.90239 0 9.4269-5.921 16.0903-15.332 16.9024l19.469 27.4685h-8.354l-18.497-26.9003h-1.702z"/><path d="m301.458 61.2442h16.876v6.3391h-23.688v-61.27049h6.812z"/><path d="m365.35 67.5842h6.813v-61.27055h-6.813z"/><path d="m422.739 3.71204 47.699 50.05866v-47.45871h6.815v64.03401l-47.699-49.9755v47.212h-6.815z"/><path d="m32.2067 115.774c-2.435-4.225-5.3542-6.661-10.548-6.661-5.4318 0-10.1386 3.9-10.1386 9.504 0 5.283 5.4345 7.723 9.5713 9.588l4.0565 1.791c7.9498 3.495 14.6821 7.472 14.6821 17.226 0 10.727-8.6 18.934-19.2256 18.934-9.8148 0-17.11431-6.339-19.06509-15.846l6.6548-1.871c.89376 6.259 5.67799 11.378 12.24979 11.378s12.5736-5.039 12.5736-11.946c0-7.151-5.595-9.588-11.2758-12.188l-3.7328-1.624c-7.1363-3.251-13.3013-6.91-13.3013-15.686 0-9.507 8.03-15.599 17.1143-15.599 6.8125 0 12.5736 3.492 15.8194 9.504z"/><path d="m96.2947 131.944h4.5433c7.543 0 13.955-2.275 13.955-11.051 0-9.995-8.033-10.724-15.983-10.724h-2.5153zm0 33.156h-6.8125v-61.273h10.0583c5.2715 0 10.7085.164 15.1695 3.251 4.54 3.171 6.892 8.532 6.892 13.976 0 4.959-2.025 9.998-5.838 13.166-4.137 3.415-9.411 4.063-14.519 4.063h-4.9503z"/><path d="m176.769 132.188h2.108c7.706 0 15.496-1.461 15.496-10.968 0-10.078-7.383-11.051-15.576-11.051h-2.028zm0 32.912h-6.813v-61.27h8.841c11.599 0 22.388 3.087 22.388 16.899 0 9.43-5.919 16.093-15.329 16.905l19.466 27.466h-8.354l-18.495-26.897h-1.704z"/><path d="m253.757 165.099h6.813v-61.271h-6.813z"/><path d="m317.647 101.227 47.701 50.058v-47.458h6.813v64.034l-47.696-49.973v47.212h-6.818z"/><path d="m476.845 134.302c.166 8.287-.727 15.114-6.325 21.614-5.598 6.503-14.118 10.239-22.632 10.239-17.2 0-31.478-14.302-31.478-31.529 0-17.554 14.278-31.854 31.882-31.854 10.708 0 19.386 4.793 25.877 13.244l-4.947 4.632c-5.111-7.229-12.006-11.537-21.01-11.537-13.955 0-24.987 11.781-24.987 25.595 0 6.5 2.598 12.678 7.139 17.31 4.461 4.471 10.952 7.8 17.361 7.8 10.625 0 21.821-7.8 21.821-19.178h-18.172v-6.336z"/></g></svg>

<svg width="4800" height="1750" viewBox="0 0 480 175" fill="none" xmlns="http://www.w3.org/2000/svg">
<path fill-rule="evenodd" clip-rule="evenodd" d="M12.4115 2.81731L34.6394 54.2563L56.9475 2.81731L69.3606 67.5831H62.382L54.5152 26.1392H54.352L34.6394 70.0999L15.007 26.1392H14.8438L6.977 67.5831H0.0012207L12.4115 2.81731Z" fill="white"/>
<path fill-rule="evenodd" clip-rule="evenodd" d="M148.702 43.8543L138.48 19.3128L128.012 43.8543L125.256 50.1934L117.874 67.5836H110.411L138.641 3.38608L166.143 67.5836H158.597L151.378 50.1934L148.702 43.8543Z" fill="white"/>
<path fill-rule="evenodd" clip-rule="evenodd" d="M218.549 34.6727H220.657C228.364 34.6727 236.15 33.2092 236.15 23.702C236.15 13.6265 228.77 12.6508 220.577 12.6508H218.549V34.6727ZM218.549 67.585H211.736V6.31171H220.577C232.177 6.31171 242.965 9.39949 242.965 23.2141C242.965 32.641 237.044 39.3044 227.633 40.1165L247.102 67.585H238.748L220.251 40.6847H218.549V67.585Z" fill="white"/>
<path fill-rule="evenodd" clip-rule="evenodd" d="M301.458 61.2442H318.334V67.5833H294.646V6.31281H301.458V61.2442Z" fill="white"/>
<path fill-rule="evenodd" clip-rule="evenodd" d="M365.35 67.5842H372.163V6.31365H365.35V67.5842Z" fill="white"/>
<path fill-rule="evenodd" clip-rule="evenodd" d="M422.739 3.71204L470.438 53.7707V6.31199H477.253V70.346L429.554 20.3705V67.5825H422.739V3.71204Z" fill="white"/>
<path fill-rule="evenodd" clip-rule="evenodd" d="M32.2067 115.774C29.7717 111.549 26.8525 109.113 21.6587 109.113C16.2269 109.113 11.5201 113.013 11.5201 118.617C11.5201 123.9 16.9546 126.34 21.0914 128.205L25.1479 129.996C33.0977 133.491 39.83 137.468 39.83 147.222C39.83 157.949 31.23 166.156 20.6044 166.156C10.7896 166.156 3.49009 159.817 1.53931 150.31L8.19411 148.439C9.08787 154.698 13.8721 159.817 20.4439 159.817C27.0157 159.817 33.0175 154.778 33.0175 147.871C33.0175 140.72 27.4225 138.283 21.7417 135.683L18.0089 134.059C10.8726 130.808 4.7076 127.149 4.7076 118.373C4.7076 108.866 12.7376 102.774 21.8219 102.774C28.6344 102.774 34.3955 106.266 37.6413 112.278L32.2067 115.774Z" fill="white"/>
<path fill-rule="evenodd" clip-rule="evenodd" d="M96.2947 131.944H100.838C108.381 131.944 114.793 129.669 114.793 120.893C114.793 110.898 106.76 110.169 98.81 110.169H96.2947V131.944ZM96.2947 165.1H89.4822V103.827H99.5405C104.812 103.827 110.249 103.991 114.71 107.078C119.25 110.249 121.602 115.61 121.602 121.054C121.602 126.013 119.577 131.052 115.764 134.22C111.627 137.635 106.353 138.283 101.245 138.283H96.2947V165.1Z" fill="white"/>
<path fill-rule="evenodd" clip-rule="evenodd" d="M176.769 132.188H178.877C186.583 132.188 194.373 130.727 194.373 121.22C194.373 111.142 186.99 110.169 178.797 110.169H176.769V132.188ZM176.769 165.1H169.956V103.83H178.797C190.396 103.83 201.185 106.917 201.185 120.729C201.185 130.159 195.266 136.822 185.856 137.634L205.322 165.1H196.968L178.473 138.203H176.769V165.1Z" fill="white"/>
<path fill-rule="evenodd" clip-rule="evenodd" d="M253.757 165.099H260.57V103.828H253.757V165.099Z" fill="white"/>
<path fill-rule="evenodd" clip-rule="evenodd" d="M317.647 101.227L365.348 151.285V103.827H372.161V167.861L324.465 117.888V165.1H317.647V101.227Z" fill="white"/>
<path fill-rule="evenodd" clip-rule="evenodd" d="M476.845 134.302C477.011 142.589 476.118 149.416 470.52 155.916C464.922 162.419 456.402 166.155 447.888 166.155C430.688 166.155 416.41 151.853 416.41 134.626C416.41 117.072 430.688 102.772 448.292 102.772C459 102.772 467.678 107.565 474.169 116.016L469.222 120.648C464.111 113.419 457.216 109.111 448.212 109.111C434.257 109.111 423.225 120.892 423.225 134.706C423.225 141.206 425.823 147.384 430.364 152.016C434.825 156.487 441.316 159.816 447.725 159.816C458.35 159.816 469.546 152.016 469.546 140.638H451.374V134.302H476.845Z" fill="white"/>
</svg>
